lib/preview/nrk-logo-preview-nrk-buskerud-title-below.svg

<svg width="71" height="41" viewBox="0 0 71 41" fill="none" xmlns="http://www.w3.org/2000/svg">
<path d="M0 17.9976V5.99865H4V17.9976H0ZM9.24381 7.90834L11.5081 17.9976H7.19917L4.49549 5.99865H6.91217C7.46635 5.99146 8.00406 6.18681 8.4245 6.54795C8.84562 6.89394 9.08495 7.37426 9.24381 7.90834ZM12 17.9976V5.99865H16V17.9976H12ZM19.0105 10.5617C18.5862 10.5658 18.1687 10.4548 17.8025 10.2405C17.4412 10.0317 17.1411 9.73152 16.9323 9.37016C16.7178 9.00389 16.6068 8.58632 16.611 8.16188C16.6061 7.74002 16.7172 7.32494 16.9323 6.96199C17.1433 6.60455 17.4431 6.30765 17.8025 6.10008C18.1689 5.88606 18.5862 5.77507 19.0105 5.77894C19.4322 5.7744 19.8471 5.88549 20.2102 6.10008C20.566 6.30947 20.8626 6.60612 21.072 6.96199C21.2868 7.32504 21.3979 7.74005 21.3933 8.16188C21.3973 8.58629 21.2863 9.00379 21.072 9.37016C20.8649 9.72993 20.5679 10.0298 20.2102 10.2405C19.8471 10.4555 19.4324 10.5666 19.0105 10.5617ZM22 17.9976V5.99865H26V17.9976H22ZM30.9737 12.5558C30.9848 12.5674 31.0693 12.7054 31.2272 12.9698C31.3851 13.2342 31.5906 13.5722 31.8439 13.9838C32.0974 14.3953 32.3649 14.8318 32.6463 15.2936C32.9278 15.7553 33.1926 16.1919 33.4408 16.6033C33.6881 17.0147 33.9697 17.4795 34.2857 17.9976H29.9598C29.6893 17.5582 29.4441 17.161 29.2245 16.8061C29.0048 16.4512 28.7713 16.0681 28.5238 15.6569C28.2758 15.2461 28.0306 14.8461 27.7882 14.457C27.5458 14.0679 27.3375 13.7272 27.1633 13.4346C26.9883 13.1419 26.8671 12.9447 26.7997 12.8431C26.6325 12.591 26.5336 12.2999 26.5127 11.9981C26.5294 11.7085 26.6226 11.4285 26.7828 11.1867C26.8503 11.074 26.9743 10.874 27.1545 10.5867C27.3348 10.2994 27.546 9.95861 27.7882 9.56428C28.0304 9.16995 28.2756 8.76716 28.5238 8.35593C28.772 7.9447 29.0055 7.55879 29.2245 7.19826C29.4445 6.83811 29.6897 6.43814 29.9598 5.99837H34.2857L30.9396 11.4571C30.8361 11.6191 30.7777 11.8059 30.7706 11.9981C30.7818 12.1999 30.8528 12.3939 30.9737 12.5558Z" fill="white"/>
<g clip-path="url(#clip0_5919_3010)">
<path d="M6.09412 28.6219V28.5711C6.69224 28.3792 7.13802 28.0633 7.43144 27.6231C7.72486 27.183 7.87157 26.6639 7.87157 26.0657C7.87157 25.5128 7.74461 25.0021 7.49069 24.5337C7.23676 24.0654 6.79946 23.693 6.17876 23.4165C5.55806 23.14 4.69473 23.0018 3.58876 23.0018H0V35.0207H3.74111C4.6778 35.0207 5.50163 34.9022 6.21261 34.6652C6.92359 34.4282 7.47658 34.0502 7.87157 33.531C8.26656 33.0119 8.46405 32.3348 8.46405 31.4997C8.46405 30.7774 8.25527 30.1652 7.83771 29.663C7.42015 29.1608 6.83895 28.8137 6.09412 28.6219ZM3.60569 24.4576C4.27152 24.4576 4.78219 24.5394 5.13768 24.703C5.49317 24.8667 5.74427 25.0867 5.89098 25.3632C6.03769 25.6397 6.11105 25.9529 6.11105 26.3027C6.11105 26.6526 6.0518 26.9686 5.9333 27.2169C5.8148 27.4651 5.65117 27.6626 5.44239 27.8093C5.23361 27.956 5.00225 28.0633 4.74833 28.131C4.49441 28.1987 4.23203 28.2325 3.96118 28.2325H1.77745V24.4576H3.60569ZM6.33111 32.6931C6.11669 32.9922 5.78941 33.2122 5.34928 33.3533C4.90915 33.4944 4.35617 33.5649 3.69033 33.5649H1.77745V29.6545H4.04582C4.61009 29.6545 5.08407 29.7166 5.46778 29.8407C5.85148 29.9648 6.1449 30.1623 6.34804 30.4332C6.55118 30.704 6.65274 31.0765 6.65274 31.5504C6.65274 32.0244 6.54553 32.394 6.33111 32.6931ZM16.251 26.472L17.9776 26.2181L17.9607 35.0207H16.6234L16.3723 33.9768C16.3215 34.0191 16.2736 34.0671 16.2228 34.1066C15.9463 34.3323 15.6585 34.527 15.3594 34.6906C15.0604 34.8542 14.7472 34.9784 14.4199 35.063C14.0926 35.1477 13.7428 35.19 13.3704 35.19C12.7384 35.19 12.1995 35.0715 11.7537 34.8345C11.308 34.5975 10.9751 34.2307 10.755 33.7342C10.5349 33.2376 10.4249 32.6113 10.4249 31.8552V26.472L12.1516 26.2181V31.5504C12.1516 32.0019 12.2164 32.3827 12.3462 32.6931C12.476 33.0034 12.6763 33.2348 12.9472 33.3871C13.218 33.5395 13.5622 33.6157 13.9798 33.6157C14.2055 33.6157 14.4227 33.5959 14.6315 33.5564C14.8403 33.5169 15.0463 33.4605 15.2494 33.3871C15.4525 33.3138 15.6585 33.2263 15.8673 33.1248C15.9942 33.0627 16.1212 32.9922 16.2482 32.9132V26.472H16.251ZM26.3655 31.762C26.4614 32.0047 26.5094 32.2953 26.5094 32.6338C26.5094 33.0853 26.4163 33.4746 26.2301 33.8019C26.0439 34.1292 25.7871 34.3944 25.4599 34.5975C25.1326 34.8006 24.7489 34.9502 24.3088 35.0461C23.8686 35.142 23.4003 35.19 22.9037 35.19C22.6893 35.19 22.4777 35.1843 22.2689 35.1731C22.0601 35.1618 21.8457 35.1336 21.6257 35.0884C21.4056 35.0433 21.1742 34.9897 20.9316 34.9276C20.689 34.8655 20.4209 34.7837 20.1275 34.6821L20.0598 33.2433C20.3194 33.3335 20.5761 33.4154 20.83 33.4887C21.084 33.5621 21.3322 33.6241 21.5749 33.6749C21.8175 33.7257 22.0489 33.7652 22.2689 33.7934C22.489 33.8216 22.6893 33.8357 22.8699 33.8357C23.2084 33.8357 23.5272 33.8019 23.8263 33.7342C24.1254 33.6665 24.368 33.5508 24.5542 33.3871C24.7404 33.2235 24.8335 33.0006 24.8335 32.7185C24.8335 32.5831 24.8081 32.4589 24.7574 32.3461C24.7066 32.2332 24.6332 32.1345 24.5373 32.0498C24.4414 31.9652 24.3257 31.8862 24.1903 31.8128C24.0548 31.7395 23.9081 31.6746 23.7501 31.6182C23.6373 31.5843 23.5216 31.5476 23.4031 31.5081C23.2846 31.4686 23.1633 31.4291 23.0392 31.3896C22.915 31.3501 22.788 31.3106 22.6583 31.2711C22.5285 31.2316 22.3959 31.1893 22.2605 31.1442C22.125 31.099 21.9952 31.0539 21.8711 31.0087C21.6454 30.9185 21.4338 30.8084 21.2363 30.6786C21.0388 30.5489 20.8667 30.3993 20.72 30.2301C20.5733 30.0608 20.4548 29.8548 20.3645 29.6122C20.2742 29.3695 20.2291 29.0902 20.2291 28.7742C20.2291 28.3341 20.3137 27.9532 20.483 27.6316C20.6523 27.31 20.8921 27.0448 21.2025 26.836C21.5128 26.6272 21.8768 26.4692 22.2943 26.362C22.7119 26.2548 23.1746 26.2012 23.6824 26.2012C23.8856 26.2012 24.0915 26.2096 24.3003 26.2266C24.5091 26.2435 24.7207 26.2745 24.9351 26.3197C25.1495 26.3648 25.3611 26.4212 25.5699 26.4889C25.7787 26.5567 25.9903 26.6357 26.2047 26.7259L26.0862 28.0971C25.9395 28.0294 25.7759 27.9673 25.5953 27.9109C25.4147 27.8545 25.237 27.8037 25.0621 27.7586C24.8871 27.7134 24.7122 27.6767 24.5373 27.6485C24.3624 27.6203 24.2015 27.6006 24.0548 27.5893C23.9081 27.578 23.7727 27.5723 23.6486 27.5723C23.3664 27.5723 23.1153 27.5949 22.8953 27.6401C22.6752 27.6852 22.4862 27.7529 22.3282 27.8432C22.1702 27.9335 22.0517 28.0435 21.9727 28.1733C21.8937 28.3031 21.8542 28.4582 21.8542 28.6388C21.8542 28.7968 21.8909 28.9379 21.9642 29.062C22.0376 29.1862 22.1335 29.2934 22.252 29.3837C22.3705 29.4739 22.5031 29.5586 22.6498 29.6376C22.7852 29.7053 22.9348 29.7674 23.0984 29.8238C23.262 29.8802 23.4313 29.9338 23.6062 29.9846C23.7812 30.0354 23.9561 30.0918 24.131 30.1539C24.3059 30.2159 24.4837 30.2752 24.6642 30.3316C24.9125 30.4219 25.1495 30.5319 25.3752 30.6617C25.6009 30.7915 25.7984 30.9467 25.9677 31.1272C26.137 31.3078 26.2696 31.5194 26.3655 31.762ZM31.901 30.3937L36.0061 35.0207H33.7716L30.3126 30.8733H30.2844V35.0207H28.5577V22.4939L30.2844 22.24V29.5699H30.9079L33.8054 26.3874H35.9214L31.901 30.3937ZM43.4883 27.4792C43.161 27.056 42.7463 26.7372 42.2441 26.5228C41.7419 26.3084 41.1691 26.2012 40.5259 26.2012C39.8826 26.2012 39.3071 26.314 38.7992 26.5397C38.2914 26.7654 37.8597 27.0814 37.5042 27.4877C37.1487 27.894 36.8779 28.3821 36.6917 28.952C36.5055 29.5219 36.4123 30.1567 36.4123 30.8564C36.4123 31.7818 36.5788 32.569 36.9117 33.2179C37.2447 33.8668 37.7384 34.3577 38.3929 34.6906C39.0475 35.0235 39.8488 35.19 40.7967 35.19C41.2481 35.19 41.646 35.1646 41.9902 35.1138C42.3344 35.063 42.6588 34.9869 42.9635 34.8853C43.2682 34.7837 43.5729 34.6539 43.8776 34.4959L43.9961 33.1925C43.7817 33.2715 43.5645 33.3505 43.3444 33.4295C43.1243 33.5085 42.8958 33.579 42.6588 33.6411C42.4218 33.7031 42.1792 33.7483 41.9309 33.7765C41.6826 33.8047 41.4344 33.8188 41.1861 33.8188C40.6782 33.8188 40.2381 33.7709 39.8657 33.6749C39.4933 33.579 39.1801 33.4154 38.9262 33.184C38.6723 32.9527 38.4804 32.6395 38.3506 32.2445C38.2491 31.9313 38.187 31.5589 38.1672 31.1272H44.2839C44.3629 30.3373 44.3319 29.6376 44.1908 29.0282C44.0498 28.4187 43.8156 27.9024 43.4883 27.4792ZM39.2224 27.8855C39.5836 27.6542 40.0237 27.5385 40.5428 27.5385C41.0619 27.5385 41.519 27.6654 41.8463 27.9194C42.1736 28.1733 42.4021 28.526 42.5319 28.9774C42.6165 29.268 42.6532 29.5868 42.656 29.9253H38.2039C38.2462 29.5473 38.3139 29.2115 38.4183 28.9351C38.5933 28.4667 38.8613 28.1169 39.2224 27.8855ZM50.9705 26.235L50.7674 27.8263C50.553 27.815 50.347 27.8206 50.1495 27.8432C49.952 27.8658 49.763 27.9024 49.5824 27.9532C49.4019 28.004 49.2241 28.0633 49.0492 28.131C48.8743 28.1987 48.6993 28.2805 48.5244 28.3764C48.389 28.4498 48.2564 28.5344 48.1266 28.6247V35.0207H46.3999V26.472L48.1266 26.2181V27.4792C48.1661 27.4369 48.2056 27.3918 48.2451 27.3523C48.4934 27.104 48.7586 26.8924 49.0407 26.7175C49.3229 26.5426 49.6219 26.4128 49.9379 26.3281C50.2539 26.2435 50.5981 26.2125 50.9705 26.235ZM58.2496 26.472L59.9763 26.2181L59.9593 35.0207H58.622L58.3709 33.9768C58.3201 34.0191 58.2722 34.0671 58.2214 34.1066C57.9449 34.3323 57.6571 34.527 57.3581 34.6906C57.059 34.8542 56.7458 34.9784 56.4185 35.063C56.0913 35.1477 55.7414 35.19 55.369 35.19C54.737 35.19 54.1981 35.0715 53.7524 34.8345C53.3066 34.5975 52.9737 34.2307 52.7536 33.7342C52.5336 33.2376 52.4235 32.6113 52.4235 31.8552V26.472L54.1502 26.2181V31.5504C54.1502 32.0019 54.2151 32.3827 54.3449 32.6931C54.4746 33.0034 54.675 33.2348 54.9458 33.3871C55.2167 33.5395 55.5609 33.6157 55.9784 33.6157C56.2041 33.6157 56.4214 33.5959 56.6301 33.5564C56.8389 33.5169 57.0449 33.4605 57.248 33.3871C57.4512 33.3138 57.6571 33.2263 57.8659 33.1248C57.9929 33.0627 58.1198 32.9922 58.2468 32.9132V26.472H58.2496ZM68.5419 22.4939V26.6131C68.525 26.6074 68.508 26.599 68.4911 26.5905C68.1977 26.4777 67.8732 26.3846 67.5177 26.3112C67.1623 26.2378 66.7701 26.2012 66.3412 26.2012C65.5851 26.2012 64.8826 26.3874 64.2337 26.7598C63.5848 27.1322 63.0628 27.6711 62.6678 28.3764C62.2729 29.0818 62.0754 29.9423 62.0754 30.958C62.0754 31.8269 62.2249 32.5774 62.524 33.2094C62.823 33.8414 63.2519 34.3295 63.8105 34.6737C64.3691 35.0179 65.0378 35.19 65.8165 35.19C66.2679 35.19 66.6939 35.1336 67.0945 35.0207C67.4952 34.9079 67.8873 34.7329 68.271 34.4959C68.398 34.4169 68.525 34.3295 68.6519 34.2392L68.8635 35.0207H70.2686V22.2569L68.5419 22.4939ZM67.6362 33.5734C67.1905 33.737 66.787 33.8188 66.4259 33.8188C65.8842 33.8188 65.4215 33.7088 65.0378 33.4887C64.6541 33.2687 64.3606 32.9301 64.1575 32.473C63.9544 32.016 63.8528 31.4432 63.8528 30.7548C63.8528 30.0664 63.9657 29.4711 64.1914 29.0028C64.4171 28.5344 64.7415 28.1789 65.1647 27.9363C65.5879 27.6937 66.093 27.5723 66.6798 27.5723C66.9619 27.5723 67.2328 27.5921 67.4924 27.6316C67.7519 27.6711 68.0143 27.7332 68.2795 27.8178C68.3613 27.8432 68.4544 27.8799 68.5419 27.9109V33.1276C68.2231 33.3166 67.9212 33.469 67.6362 33.5734Z" fill="white"/>
</g>
<defs>
<clipPath id="clip0_5919_3010">
<rect width="71" height="14" fill="white" transform="translate(0 22)"/>
</clipPath>
</defs>
</svg>

<svg xmlns="http://www.w3.org/2000/svg" viewBox="0 0 71 41"><path fill="#fff" d="M0 17.998v-12h4v12H0Zm9.244-10.09 2.264 10.09H7.2l-2.704-12h2.417a2.276 2.276 0 0 1 1.513.55c.42.346.66.826.819 1.36ZM12 17.998v-12h4v12h-4Zm7.01-7.436a2.381 2.381 0 0 1-2.078-1.192 2.345 2.345 0 0 1-.321-1.208 2.301 2.301 0 0 1 .321-1.2A2.41 2.41 0 0 1 20.21 6.1c.356.21.653.506.862.862.215.363.326.778.321 1.2a2.35 2.35 0 0 1-.321 1.208 2.4 2.4 0 0 1-.862.87 2.301 2.301 0 0 1-1.2.322ZM22 17.998v-12h4v12h-4Zm8.974-5.442c.01.011.095.15.253.414s.364.602.617 1.014a316.22 316.22 0 0 1 1.597 2.62c.247.41.529.876.845 1.394H29.96c-.27-.44-.516-.837-.736-1.192-.22-.355-.453-.738-.7-1.15-.248-.41-.493-.81-.736-1.199-.242-.39-.45-.73-.625-1.022a18.04 18.04 0 0 0-.363-.592 1.747 1.747 0 0 1-.287-.845c.016-.29.11-.57.27-.811.067-.113.191-.313.371-.6a182.106 182.106 0 0 0 1.37-2.23l.7-1.159.736-1.2h4.326l-3.346 5.46a1.079 1.079 0 0 0-.17.54c.012.202.083.396.204.558Z"/><g clip-path="url(#a)"><path fill="#fff" d="M6.094 28.622v-.05c.598-.193 1.044-.509 1.337-.949.294-.44.44-.96.44-1.557 0-.553-.126-1.064-.38-1.532-.254-.469-.692-.841-1.312-1.117-.62-.277-1.484-.415-2.59-.415H0V35.02h3.741c.937 0 1.76-.119 2.472-.356.71-.237 1.264-.615 1.659-1.134.395-.52.592-1.196.592-2.031 0-.723-.209-1.335-.626-1.837-.418-.502-1-.85-1.744-1.041Zm-2.488-4.164c.666 0 1.176.081 1.532.245.355.164.606.384.753.66.147.277.22.59.22.94s-.06.666-.178.914a1.494 1.494 0 0 1-.49.592c-.21.147-.44.254-.695.322a3.042 3.042 0 0 1-.787.102H1.777v-3.775h1.829Zm2.725 8.235c-.214.3-.542.52-.982.66-.44.141-.993.212-1.659.212H1.777v-3.91h2.269c.564 0 1.038.062 1.422.186.383.124.677.321.88.592.203.271.305.643.305 1.117s-.107.844-.322 1.143Zm9.92-6.221 1.727-.254-.017 8.803h-1.338l-.25-1.044c-.052.042-.1.09-.15.13-.277.225-.564.42-.864.584a4.075 4.075 0 0 1-.94.372 4.176 4.176 0 0 1-1.049.127c-.632 0-1.17-.118-1.616-.355-.446-.238-.779-.604-.999-1.1-.22-.497-.33-1.124-.33-1.88v-5.383l1.727-.254v5.332c0 .452.064.833.194 1.143.13.31.33.542.601.694.271.152.615.229 1.033.229a3.5 3.5 0 0 0 .652-.06c.208-.04.414-.095.617-.169.204-.073.41-.16.618-.262a4.3 4.3 0 0 0 .381-.212v-6.441h.003Zm10.114 5.29c.096.243.144.533.144.872 0 .451-.093.84-.279 1.168a2.213 2.213 0 0 1-.77.795 3.633 3.633 0 0 1-1.151.45 6.59 6.59 0 0 1-1.405.143c-.215 0-.426-.006-.635-.017a4.369 4.369 0 0 1-.643-.085c-.22-.045-.452-.098-.694-.16-.243-.063-.511-.144-.804-.246l-.068-1.439c.26.09.516.172.77.246.254.073.502.135.745.186.242.05.474.09.694.118a4.324 4.324 0 0 0 1.557-.06c.3-.066.542-.182.728-.346.186-.163.28-.386.28-.669a.866.866 0 0 0-.296-.669 1.869 1.869 0 0 0-.348-.236 3.148 3.148 0 0 0-.44-.195c-.113-.034-.228-.07-.347-.11a28.154 28.154 0 0 0-.745-.237 15.994 15.994 0 0 1-.787-.262c-.226-.09-.437-.2-.635-.33a2.48 2.48 0 0 1-.516-.449 1.996 1.996 0 0 1-.355-.618 2.395 2.395 0 0 1-.136-.838c0-.44.085-.82.254-1.142.17-.322.41-.587.72-.796.31-.209.674-.367 1.091-.474.418-.107.88-.16 1.388-.16.204 0 .41.008.618.025.21.017.42.047.635.093.215.045.426.101.635.169.209.068.42.147.635.237l-.119 1.371a4.066 4.066 0 0 0-.49-.186c-.181-.056-.359-.107-.534-.152a5.77 5.77 0 0 0-1.007-.17 5.318 5.318 0 0 0-.406-.017c-.283 0-.534.023-.754.068-.22.045-.409.113-.567.203a.962.962 0 0 0-.355.33.878.878 0 0 0-.119.466c0 .158.037.299.11.423.074.124.17.231.288.322.119.09.251.175.398.254a3.7 3.7 0 0 0 .448.186c.164.056.333.11.508.16.175.051.35.108.525.17.175.062.353.121.533.178.248.09.485.2.711.33.226.13.423.285.593.465.169.18.302.392.398.635Zm5.536-1.368 4.105 4.627h-2.234l-3.46-4.148h-.028v4.148h-1.726V22.494l1.726-.254v7.33h.624l2.897-3.183h2.116l-4.02 4.007Zm11.587-2.915a3.068 3.068 0 0 0-1.244-.956c-.502-.215-1.075-.322-1.718-.322s-1.219.113-1.727.339c-.508.225-.94.541-1.295.948a4.15 4.15 0 0 0-.812 1.464 6.11 6.11 0 0 0-.28 1.904c0 .926.167 1.713.5 2.362a3.31 3.31 0 0 0 1.48 1.473c.655.332 1.457.499 2.405.499.451 0 .849-.025 1.193-.076.344-.051.669-.127.974-.229a6.35 6.35 0 0 0 .914-.39l.118-1.302c-.214.079-.431.157-.652.236-.22.08-.448.15-.685.212-.237.062-.48.107-.728.136a6.594 6.594 0 0 1-.745.042c-.508 0-.948-.048-1.32-.144a2.172 2.172 0 0 1-.94-.491c-.254-.231-.446-.544-.575-.94a4.28 4.28 0 0 1-.184-1.117h6.117c.079-.79.048-1.49-.093-2.099-.141-.61-.375-1.126-.703-1.549Zm-4.266.407c.362-.232.802-.348 1.32-.348.52 0 .977.127 1.304.381.328.254.556.607.686 1.058.085.291.121.61.124.948h-4.452c.042-.378.11-.713.214-.99.175-.468.443-.818.804-1.05Zm11.748-1.651-.203 1.591a3.713 3.713 0 0 0-1.185.127c-.18.051-.358.11-.533.178a4.383 4.383 0 0 0-.922.494v6.396H46.4v-8.549l1.727-.254v1.261c.04-.042.079-.087.118-.127.248-.248.514-.46.796-.634.282-.175.58-.305.897-.39.316-.084.66-.116 1.032-.093Zm7.28.237 1.726-.254-.017 8.803h-1.337l-.251-1.044c-.05.042-.099.09-.15.13-.276.225-.564.42-.863.584-.299.163-.612.287-.94.372a4.176 4.176 0 0 1-1.049.127c-.632 0-1.17-.118-1.617-.355-.445-.238-.778-.604-.998-1.1-.22-.497-.33-1.124-.33-1.88v-5.383l1.726-.254v5.332c0 .452.065.833.195 1.143.13.31.33.542.6.694.272.152.616.229 1.033.229.226 0 .443-.02.652-.06.209-.04.415-.095.618-.169.203-.073.41-.16.618-.262.127-.062.254-.133.38-.212v-6.441h.004Zm10.292-3.978v4.12a.403.403 0 0 1-.05-.024 5.828 5.828 0 0 0-2.15-.39c-.757.001-1.46.187-2.108.56-.65.372-1.171.911-1.566 1.616-.395.706-.593 1.566-.593 2.582 0 .869.15 1.62.449 2.251a3.36 3.36 0 0 0 1.286 1.465c.56.344 1.228.516 2.007.516.45 0 .877-.056 1.278-.17.4-.112.792-.287 1.176-.524.127-.08.254-.166.38-.257l.213.782h1.405V22.257l-1.727.237Zm-.906 11.08c-.445.163-.849.245-1.21.245-.542 0-1.005-.11-1.388-.33-.384-.22-.677-.559-.88-1.016-.204-.457-.305-1.03-.305-1.718 0-.689.113-1.284.338-1.752.226-.469.55-.824.974-1.067.423-.242.928-.364 1.515-.364a5.129 5.129 0 0 1 1.6.245c.081.026.174.063.262.094v5.217c-.319.189-.62.341-.906.445Z"/></g><defs><clipPath id="a"><path fill="#fff" d="M0 22h71v14H0z"/></clipPath></defs></svg>
